!!!COM: Ludwig van Beethoven
!!!CNT: Deutsch
!!!TXO: Deutsch
!!!OTL: "An die Hoffnung"
!!!LYR: Tiedge, Cristoph August
!!!OPS: Op. 94
!!!ENC: Amanda Harris
!!!YOR: Sa2mtliche Lieder, Band 2
!!!YOR: G. Henle Verlag
!!!ODT: 1815/
!!NB: Vocal melody and text encoded.
**kern	**silbe
*clefG2	*
*k[b-e-a-d-g-]	*
*M2/2	*
*MM[poco sostenuto]	*
=5	=5
{4b-	{Ob
4r	.
4r	.
4gn	ein
=6	=6
1cc	Gott
=7	=7
4dd-}	sei?}
4r	.
2r	.
=9	=9
{4cc	{Ob
8r	.
8f	er
4f	einst
4gn	er-
=10	=10
4an	-fu2l-
4an	-le,
4r	.
8an	was
8an	die
=11	=11
4.an	Sehn-
8an	-sucht
8.bn	wei-
16bn	-nend
8cc#	sich
8cc#	ver-
=12	=12
2ddn}	-spricht?}
2r	.
=14	=14
{2cc#	{Ob,
4r	.
4gn	vor
=15	=15
8gn	ir-
8gn	-gend
8an	ei-
8b-	-nem
8.b-	Welt-
16c#	-ge-
4c#	-richt,
=16	=16
4r	.
8en	sich
8en	dies
4.f	ra2t-
8f	-sel-
=17	=17
8f#	-haf-
8f#	-te
8.gn	Sein
16gn	ent-
4an	-hu2l-
4an}	-le?}
=22	=22
*k[f#c#]	*
{[1dd	{Hof-
=23	=23
4d]	|
4a	-fen
4.ff#	soll
8dd	der
=24	=24
4b	Mensch!
4r	.
2r	.
=25	=25
4r	.
4b	Er
4.g	fra-
8f#	-ge
=26	=26
4d}	nicht!}
4r	.
2r	.
=28	=28
*k[f#]	*
*MM[larghetto]	*
2r	.
4r	.
8r	.
{8dd	{Die
=29	=29
4.dd	du
8cc	so
8cc	gern
8b	in
8a	heil'-
8g	-gen
=30	=30
8f#	Na2ch-
[8e	|
12e]	|
12f#	|
12g	-ten
8g	fei-
8d	-erst
8r	.
8g	und
=31	=31
8f#	sanft
8a	und
8g	weich
8b	den
8a	Gram
[8dd	|
12dd]	|
12cc#	|
12ccn	ver-
=32	=32
8a#	-schlei-
8b}	-erst,}
4r	.
4r	.
{12b	{der
12g	ei-
12e	-ne
=33	=33
12d	zar-
12c#	|
12b	-te
12b	See-
12an	|
12g	-le
8g	qua2lt,
[8f#	|
16f#]	|
16a	|
16a	o
16dd	|
=34	=34
4.dd	Hoff-
8b	-nung!
8g	lass,
16r	.
16g	durch
16a	dich
16b	em-
16cc	-por
16dd	ge-
=35	=35
16dd	-ho-
16ee	|
4ee	-ben,
8e	den
4.fn	Dul-
8fn	-der
=36	=36
8e	ah-
8g	-nen,
8cc	dass
8ee	dort
[4gg	o-
12gg]	|
12ff#	-ben
12ee	ein
=37	=37
8dd	En-
8b	-gel
8a	sei-
8ee	-ne
4g	Tra2-
12f#	|
12dd	|
12dd	-nen
=38	=38
8dd	za2hlt!
4cc#}	|}
{8ccn	{O
8.ccn	Hoff-
16a	|
8a	-nung!
16a	O
16dd	|
=39	=39
8.dd	Hoff-
16b	|
8.b	-nung!
16g	|
8g	lass,
8b	durch
16dd	dich
16dd	em-
16ee	-por
16ffn	ge-
=40	=40
16ffn	-ho-
16ee	|
8ee	-ben
8r	.
8e	den
4.fn	Dul-
8fn	-der
=41	=41
8e	ah-
8g	-nen,
8cc	dass
8ee	dort
[4gg	o-
12gg]	|
12ff#	-ben
12ee	ein
=42	=42
8dd	En-
8b	-gel
8a	sei-
8ee	-ne
4g	Tra2-
16f#	|
16ee	|
16dd	|
16cc	-nen
=43	=43
8b	za2hlt,
8dd	ein
8ee	En-
8cc	-gel
8.b	sei-
16dd	-ne
16dd	Tra2-
16cc#	|
16ccn	|
16a	-nen
=44	=44
16b	za2hlt,
16dd	ein
[8ee	En-
16ee]	|
16ff#	|
16gg	-gel
16ee	|
16ee	sei-
8dd	|
16b	-ne
16dd	Tra2-
16cc#	|
16ccn	|
16f#	-nen
=45	=45
4a	za2hlt!
8g}	|}
8r	.
2r	.
=47	=47
2r	.
4r	.
{8fn	{Wenn,
8r	.
=48	=48
*k[b-e-a-]	*
8g	la2ngst
8r	.
8r	.
16.r	.
32g	ver-
8g	-hallt,
8r	.
8r	.
16.r	.
32g	ge-
=49	=49
8.b-	-lieb-
16b	-te
12g	Stim-
12f	|
12e-	-men
8e-	schwei-
8d	-gen;
4r	.
=50	=50
8r	.
8f	wenn
8f	un-
8f	-ter
8.g-	aus-
16g-	-ge
8g-	-storb-
8g-	-nen
=51	=51
8f	Zwei-
8f	-gen
8r	.
8f	ver-
8.en	-o2-
16en	-det
8f	die
8gn	Er-
=52	=52
4.a-	-inn-
8f	-rung
8e-	sitzt:
8d}	|}
4r	.
=53	=53
2r	.
4r	.
8r	.
{8g	{dann
=54	=54
8.cc	na-
16g	-he
8g	dich,
8een	|
8.een	na-
16cc	-he
8cc	dich,
8g	wo
=55	=55
8a-	dein
8a-	Ver-
8.a-	-lass-
16g	-ner
8g	trau-
16f#	-ert
16ee-	|
4ee-	und,
=56	=56
8r	.
16f#	von
16g	der
16an	Mit-
16an	-ter-
16.an	nacht
32b	um-
16an	-schau-
16g	-ert,
8r	.
8b	sich
16g	auf
16g	ver-
=57	=57
8e	-sunk-
8d	-ne
2c#	Ur-
4c#	-nen
=58	=58
*k[b-]	*
4b}	stu2tzt.}
4r	.
2r	.
=59	=59
2r	.
4r	.
{4a	{Und
=60	=60
16f	blickt
16a	er
[8dd	auf,
16dd]	|
16ee	das
[8ff	Schick-
8ff]	|
8dd	-sal
8a	an-
8f	-zu-
=61	=61
16f	-kla-
16e	|
8e	-gen,
16r	.
16g	wenn
16g	schei-
16g	-dend
8.b-	u2-
16b-	-ber
8.ee	sei-
16dd	-nen
=62	=62
16dd	Ta-
16cc#	|
16cc#	-gen
16ccn	die
8.ee-	letz-
16ccn	-ten
8a	Strah-
8f#	-len
8d	un-
8c	-ter-
=63	=63
*k[]	*
4Bn}	-gehn:}
4r	.
2r	.
=64	=64
4r	.
{4f#	{dann
8.f#	lass
16f#	ihn
8f#	um
8f#	den
=65	=65
8f#	Rand
8f#	des
8f#	Er-
8f#	-den-
8gn	-trau-
8g	-mes
8r	.
8g	das
=66	=66
8g	Leuch-
8g	-ten
8g	ei-
8g	-nes
8.a	Wol-
16a	-ken-
8b	-sau-
16b	-mes
16b	von
=67	=67
8cc	ei-
8cc	-ner
8dd	na-
8ee	-hen
[4ffn	Son
8ffn]	|
8dd	-ne
=68	=68
8b	sehn,
8b	von
8cc	ei-
8g	-ner
16a	na-
16b	|
16cc	|
16dd	|
16ee	|
16ff	|
16gg	-hen
16aa	|
=69	=69
[2aa	Son-
8aa]	|
8ff#	|
8dd	|
8cc	-ne
=70	=70
4.cc}	sehn!}
8r	.
4r	.
8r	.
{16cc	{Die
16b	|
=71	=71
8b	du
[8a	|
16a]	|
16cc	|
16ee	so
16dd	|
8dd	gern,
[8cc	|
12cc]	|
12cc#	|
12dd	die
=72	=72
*k[f#]	*
4.dd	du
8ccn	so
8cc	gern
8b	in
8a	heil'-
8g	-gen
=73	=73
8f	Na2ch-
[8e	|
12e]	|
12f	|
12g	-ten
8g	fei-
8d	-erst
8r	.
8g	und
=74	=74
8f	sanft
8a	und
8g	weich
8b	den
8a	Gram
[8dd	|
12dd]	|
12cc#	|
12ccn	ver-
=75	=75
8a#	-schlei-
8b}	-erst,}
4r	.
4r	.
{12b	{der
12g	ei-
12e	-ne
=76	=76
12d	zar-
12c#	|
12b	-te
12b	See-
12an	-le
12g	qua2lt,
8g	|
[8f	|
16f]	|
16a	|
16a	o
16dd	|
=77	=77
4.dd	Hoff-
8b	-nung!
8g	lass,
16r	.
16g	durch
16a	dich
16b	em-
16cc	-por
16dd	ge-
=78	=78
16dd	-ho-
16ee	|
4ee	-ben,
8e	den
4.fn	Dul-
8fn	-der
=79	=79
8e	ah-
8g	-nen,
8cc	dass
8ee	dort
[4gg	o-
12gg]	|
12ff#	-ben
12ee	ein
=80	=80
8dd	En-
8b	-gel
8a	sei-
8ee	-ne
4g	Tra2-
12f	|
12dd	|
12dd	-nen
=81	=81
8dd	za2hlt!
4cc#}	|}
{8ccn	{O
8.ccn	Hoff-
16a	|
8a	-nung!
16a	O
16dd	|
=82	=82
8.dd	Hoff-
16b	|
8.b	-nung!
16g	|
8g	lass,
8b	durch
16dd	dich
16dd	em-
16ee	-por
16ffn	ge-
=83	=83
16ffn	-ho-
16ee	|
8ee	-ben,
8r	.
8e	den
4.fn	Dul-
8fn	-der
=84	=84
8e	ah-
8g	-nen,
8cc	dass
8ee	dort
[4gg	o-
12gg]	|
12ff#	-ben
12ee	ein
=85	=85
8dd	En-
8b	-gel
8a	sei-
8ee	-ne
4g	Tra2-
16f#	|
16ee	|
16dd	|
16cc	-nen
=86	=86
8b	za2hlt,
8dd	ein
8ee	En-
8cc	-gel
8.b	sei-
16dd	-ne
16dd	Tra2-
16cc#	|
16ccn	|
16a	-nen
=87	=87
16b	za2hlt,
16dd	ein
[8ee	En-
16ee]	|
16ff#	|
16gg	-gel
16ee	|
16ee	sei-
8dd	|
16b	-ne
16dd	Tra2-
16cc#	|
16ccn	|
16f#	-nen
=88	=88
4a	za2hlt!
8g	|
8r	.
2r	.
=89	=89
4r	.
8.r	.
16dd	O
4dd	Hoff-
8g}	-nung!}
8r	.
*-	*-
